icon-svg/reolink-go.svg

<svg xmlns="http://www.w3.org/2000/svg" fill="#44739e" viewBox="0 0 24 24"><path d="M19.19 3.671a2.533 2.533 0 0 0-1.93.679 3.635 3.635 0 0 0-.994 1.575l1.77-.089c.089-.168.232-.5.471-.588a1.029 1.029 0 0 1 1.309.478 2.26 2.26 0 0 1 .27.413 3.043 3.043 0 0 1-.125 3 1.189 1.189 0 0 1-.843.586.85.85 0 0 1-.428-.076 1.34 1.34 0 0 1-.29-.149 1.01 1.01 0 0 1-.339-.371l-.025-.047-1.65.195a3.72 3.72 0 0 0 .892 1.31 2.62 2.62 0 0 0 1.771.723 1.7 1.7 0 0 0 .211-.009c1.6-.142 2.8-1.863 2.734-3.919a3.565 3.565 0 0 0-2.804-3.711M4.151 11.624c-2.036.208-2.615 2.413-1.786 4.435a5.281 5.281 0 0 0 3.554 3.16 2.458 2.458 0 0 0 3-2.629c.008-2.6-2.336-5.214-4.768-4.966m-1.069 1.917a1.167 1.167 0 0 1 .439-.972 1.224 1.224 0 0 1 1.1-.134 2.772 2.772 0 0 1 1.509 1.378 1.906 1.906 0 0 1 .122 1.614.987.987 0 0 1-.716.544 1.38 1.38 0 0 1-.28.028 1.888 1.888 0 0 1-1.184-.472 2.69 2.69 0 0 1-.99-1.986m3.2 4.414c-.986.107-1.979-.157-2.194-.624-.232-.506.536-1.016 1.682-1.1 1.093-.077 2.006.277 2.079.756.064.447-.624.865-1.57.968zm-1.903-2.801a1.3 1.3 0 0 0 1.061.346.508.508 0 0 0 .378-.284 1.45 1.45 0 0 0-.118-1.189A2.3 2.3 0 0 0 4.477 12.9a1 1 0 0 0-.3-.048.625.625 0 0 0-.374.111.692.692 0 0 0-.241.584 2.188 2.188 0 0 0 .817 1.607m.261-1.68a1.237 1.237 0 0 1 .686.586c.19.357.157.777-.214.847a1.061 1.061 0 0 1-1.088-1.024c.001-.368.304-.5.616-.409m-1.657-1.948A4.14 4.14 0 0 1 8 12.975c2.677 3.317.576 5.781.576 5.781a15.71 15.71 0 0 0 4.25-2.856c1.111-1.795.826-3.746-.912-5.84-.575-.693-2.436-2.821-5.085-2.08a13.65 13.65 0 0 0-3.846 3.546m4.173-3.792c1.952-1.126 5.088-2.83 7.521-.129 2.595 2.879.129 6.368-1.339 7.735-.373.348 2-1.709-1.111-5.5-2.719-3.316-5.071-2.106-5.071-2.106M18.29 8.777c-.047 0 .215.678.64.565a1.626 1.626 0 0 0 1.135-1.427 2.176 2.176 0 0 0-1.1-2.388s-.422-.138-.784.455l-2.769.239a3.23 3.23 0 0 0-1.1.3l-.139.065a3.588 3.588 0 0 1 1.757 2.051.339.339 0 0 0 .384.352l1.67-.175z"/></svg>

<?xml version="1.0" encoding="UTF-8"?>
<svg width="24px" fill="#44739e" height="24px" viewBox="0 0 24 24" version="1.1" xmlns="http://www.w3.org/2000/svg" xmlns:xlink="http://www.w3.org/1999/xlink">
            <path d="M 19.19,3.671 A 2.533,2.533 0 0 0 17.26,4.35 3.635,3.635 0 0 0 16.266,5.925 l 1.77,-0.089 c 0.089,-0.168 0.232,-0.5 0.471,-0.588 a 1.029,1.029 0 0 1 1.309,0.478 v 0 a 2.258,2.258 0 0 1 0.27,0.413 3.043,3.043 0 0 1 -0.125,3 A 1.189,1.189 0 0 1 19.118,9.725 0.852,0.852 0 0 1 18.69,9.649 1.336,1.336 0 0 1 18.4,9.5 1.007,1.007 0 0 1 18.061,9.129 l -0.025,-0.047 -1.65,0.195 a 3.72,3.72 0 0 0 0.892,1.31 2.619,2.619 0 0 0 1.771,0.723 1.671,1.671 0 0 0 0.211,-0.009 c 1.6,-0.142 2.8,-1.863 2.734,-3.919 A 3.565,3.565 0 0 0 19.19,3.671 Z M 4.151,11.624 c -2.036,0.208 -2.615,2.413 -1.786,4.435 a 5.281,5.281 0 0 0 3.554,3.16 2.458,2.458 0 0 0 3,-2.629 C 8.927,13.99 6.583,11.376 4.151,11.624 Z m -1.069,1.917 a 1.167,1.167 0 0 1 0.439,-0.972 1.224,1.224 0 0 1 1.1,-0.134 2.772,2.772 0 0 1 1.509,1.378 1.906,1.906 0 0 1 0.122,1.614 0.987,0.987 0 0 1 -0.716,0.544 1.378,1.378 0 0 1 -0.28,0.028 1.888,1.888 0 0 1 -1.184,-0.472 2.69,2.69 0 0 1 -0.99,-1.986 z m 3.2,4.414 c -0.986,0.107 -1.979,-0.157 -2.194,-0.624 -0.232,-0.506 0.536,-1.016 1.682,-1.1 1.093,-0.077 2.006,0.277 2.079,0.756 0.064,0.447 -0.624,0.865 -1.57,0.968 z M 4.379,15.154 A 1.3,1.3 0 0 0 5.44,15.5 0.508,0.508 0 0 0 5.818,15.216 1.449,1.449 0 0 0 5.7,14.027 2.3,2.3 0 0 0 4.477,12.9 a 1,1 0 0 0 -0.3,-0.048 0.625,0.625 0 0 0 -0.374,0.111 0.692,0.692 0 0 0 -0.241,0.584 2.188,2.188 0 0 0 0.817,1.607 z m 0.261,-1.68 a 1.237,1.237 0 0 1 0.686,0.586 c 0.19,0.357 0.157,0.777 -0.214,0.847 A 1.061,1.061 0 0 1 4.024,13.883 c 0.001,-0.368 0.304,-0.5 0.616,-0.409 z M 2.983,11.526 A 4.14,4.14 0 0 1 8,12.975 c 2.677,3.317 0.576,5.781 0.576,5.781 A 15.711,15.711 0 0 0 12.826,15.9 C 13.937,14.105 13.652,12.154 11.914,10.06 11.339,9.367 9.478,7.239 6.829,7.98 A 13.654,13.654 0 0 0 2.983,11.526 Z M 7.156,7.734 c 1.952,-1.126 5.088,-2.83 7.521,-0.129 2.595,2.879 0.129,6.368 -1.339,7.735 -0.373,0.348 2,-1.709 -1.111,-5.5 C 9.508,6.524 7.156,7.734 7.156,7.734 Z M 18.29,8.777 c -0.047,0 0.215,0.678 0.64,0.565 a 1.626,1.626 0 0 0 1.135,-1.427 2.176,2.176 0 0 0 -1.1,-2.388 c 0,0 -0.422,-0.138 -0.784,0.455 l -2.769,0.239 a 3.234,3.234 0 0 0 -1.1,0.3 l -0.139,0.065 a 3.588,3.588 0 0 1 1.757,2.051 0.339,0.339 0 0 0 0.384,0.352 v 0 l 1.67,-0.175 z"></path>

</svg>
